X:171
T:Swinging on the Scioto
C:David McLaughlin 
N:TablEdited by Larry Tanner
L:1/8
Q:1/4=190
M:4/4
K:G
zD2^D E2 F2 | "G"GF GB "D"AG Ac | "G"BG zG2D EF | G2 GB "D"AG Ac | "G"BG zG2D EF | 
G2 A2 B2 d2 | {d}"C"e3e2g fe | "D"dA Bc AF Ac | BD GB AD F2 | "G"GF GB "D"AG Ac | 
"G"Bc dB AD EF | GB2G "D"AB cA | "G"Bc dB AD EF | GF GA Bc d2 | "C"ed cB AB ce | 
"D"dA Bc AF Ac | "G"BG zG3 ef | g2 a2 b2 ag | "D"fg ^ga z2 e=g | a2 ab ag d2 | 
"Em"ed BG E3g | ze fg ed Bd | "C"cG cd ed ce | "D"dA Bc AF Ac | "G"BG zG4z | z2 ga b2 ag | 
"D"fg ^ga z4 | z2 ab ag d2 | {d}"Em"e6 ef | ge fg ed Bd | "C"cG cd ed ce | "D"dA Bc AF Ac | 
"G"BG zB "D"AD FG | "G"zG2B "D"Ac2A | "G"Bd2B Ac BA | GB2G "D"Ac2A | "G"Bd2B Ac BA | 
G2 =F2 E2 D2 | "C"CB, CD EG FE | "D"D^C DE FG Ac | "G"BD GB "D"AG FA | "G"G2 BG "D"Ac2A | 
"G"Bd2B Ac BA | GB2G "D"Ac2A | "G"Bc dB AD EF | G2 =F2 E2 D2 | "C"CB, CD EG FE | 
"D"D^C DE FD EF | "G"GB AF G2 DF | G4 B2 AG | "D"FG A2 A4 | z2 AB AG D2 | {^D}"Em"E8 | 
zG2F ED B,2 | "C"CB, CD EG FE | "D"D2 C2 B,2 A,2 | "G"G,B, DF GD EF | GF GA {^A}B=A G2 | 
"D"FG A2 AG AB | A2 AB AG D^D | "Em"E2 EG ED EF | GD FG ED B,D | "C"CB, CD EG FE | 
"D"D2 ^D2 E2 F2 | "G"GB d2 g4 | 


